X:580
T: Sheehan's
M: C|
L: 1/8
R: reel
K: G
D|G2 BG DGBG|ABcA BGGB|A3 B cBAB|cBAG FDEF|
G2 BG DGBG|cBAB cdef|gedB c2 Bc|dBcA BGG :|
d|g2 bg dgbg|gbag fdde|f2 af dfaf|gbag fdef|
g2 bg dgbg|gbag fdef|gedB c2 Bc|dBcA BGG :|
